X:1
T:Title
%%score ( 1 2 ) ( 3 4 )
L:1/8
Q:1/4=90
M:3/4
K:C
V:1 treble nm="Violin, SOPRANO ALTO"
V:2 treble 
V:3 bass nm="Violin, TENOR BASS"
V:4 bass 
V:1
 z2 z2 [EG]>[EG] | [EG]3 [EG] [Ec]>[EG] | [Ge] [Ec]3 [Ec]>[Gc] | [Fc]3 [Ac] [GB]>[FA] | %4
 [EG]4 [EG]>[EG] | [FA]3 [FA] [FA]>[FA] | [^FA] [Fd]3 [Fd]>[Fc] | [GB]3 [GB] [^FA]>[FB] | %8
[M:4/4] z8 | z8 | z8 | z8 | z8 | z8 | z8[Q:1/4=90][Q:1/4=12] | z4 z2 c2- | c4 z4 |] %17
V:2
 x6 | x6 | x6 | x6 | x6 | x6 | x6 | x6 |[M:4/4] [Ec]4 z [EG] [EG]2- | %9
 [EG][FA] [EG]2- [EG][DF] [CE]2- | [CE]4 z [Gc] [Ac]2- | [Ac][Ad] [Ac]2- [Ac][FA] [EG]2- | %12
 [EG]2 z [EG] [EG]>[Ec] [Ge]2- | [Ge]3 [Gc] [Gd]>[Gc] [Ac]2- | [Ac]2 [FA]2 [Ac]>[FA] [EG]2- | %15
 [EG][Ec] [FB]2- [FB][FB] E2 | F>F E2 z4 |] %17
V:3
 z2 z2 [C,C]>[C,C] | [C,C]3 [C,C] [C,G,]>[C,C] | [C,C] [C,G,]3 [C,G,]>[E,_B,] | %3
 [F,A,]3 [F,C] [F,C]>[F,C] | [C,C]4 [C,C]>[C,C] | [F,C]3 [F,C] [F,C]>[F,C] | %6
 [D,D] [D,A,]3 [D,A,]>[D,D] | [G,D]3 [G,D] [G,,G,D]>[G,,G,] |[M:4/4] [C,G,]4 z [C,C] [C,C]2- | %9
 [C,C][C,C] [C,C]2- [C,C][C,G,] [C,G,]2- | [C,G,]4 z [E,C] [F,C]2- | %11
 [F,C][F,C] [F,C]2- [F,C][F,C] [C,C]2- | [C,C]2 z [C,C] [E,C]>[G,C] C2- | %13
 C3 [E,C] [D,B,]>[E,C] [F,C]2- | [F,C]4 [F,C]>[F,C] [G,C]2- | [G,C]G, G,2- G,G, G,2 | %16
 A,>A, G,2 z4 |] %17
V:4
 x6 | x6 | x6 | x6 | x6 | x6 | x6 | x6 |[M:4/4] x8 | x8 | x8 | x8 | x8 | x8 | x8 | z4 z2 C,2- | %16
 C,4 z4 |] %17

